Costumes/arrow1-d.svg

<?xml version="1.0" encoding="UTF-8" standalone="no"?>
<svg
   version="1.1"
   width="46.319088"
   height="56.286018"
   viewBox="-1 -1 46.319088 56.286018"
   id="svg11"
   sodipodi:docname="arrow1-d.svg"
   xmlns:inkscape="http://www.inkscape.org/namespaces/inkscape"
   xmlns:sodipodi="http://sodipodi.sourceforge.net/DTD/sodipodi-0.dtd"
   xmlns="http://www.w3.org/2000/svg"
   xmlns:svg="http://www.w3.org/2000/svg">
  <sodipodi:namedview
     id="namedview13"
     pagecolor="#ffffff"
     bordercolor="#000000"
     borderopacity="0.25"
     inkscape:showpageshadow="2"
     inkscape:pageopacity="0.0"
     inkscape:pagecheckerboard="0"
     inkscape:deskcolor="#d1d1d1" />
  <defs
     id="defs7">
    <linearGradient
       id="grad_1"
       x1="352.5928"
       y1="1042.4482"
       x2="352.5928"
       y2="1139.9414"
       gradientUnits="userSpaceOnUse">
      <stop
         offset="0"
         stop-color="#EE2A7B"
         id="stop2" />
      <stop
         offset="1"
         stop-color="#811150"
         id="stop4" />
    </linearGradient>
  </defs>
  <!-- Exported by Scratch - http://scratch.mit.edu/ -->
  <g
     id="ID0.16137408139184117"
     transform="translate(-1.2842395,-1.0796747)">
    <path
       id="ID0.6278323931619525"
       fill="url(#grad_1)"
       stroke="#ffffff"
       stroke-width="2.5"
       d="m 93.71,81.997 c 0,0 -49.484,0.021 -71.958,0.021 -5.887,0 -10.659,-4.773 -10.659,-10.659 0,-5.887 4.772,-10.658 10.659,-10.658 18.842,0 71.9,-0.022 71.9,-0.022 0,0 -3.562,-3.605 -19.995,-20.037 -4.163,-4.163 -4.163,-10.911 0,-15.073 4.165,-4.162 10.912,-4.163 15.074,0 13.325,13.323 38.24,38.241 38.24,38.241 4.162,4.163 4.162,10.912 0,15.073 0,0 -21.501,21.502 -37.934,37.935 -4.165,4.165 -10.913,4.165 -15.074,0 -4.163,-4.162 -4.163,-10.912 0,-15.071 C 87.288,88.418 93.71,81.997 93.71,81.997 Z"
       transform="matrix(3.381834e-4,-0.46329108,-0.46329108,-3.381834e-4,56.4,60.95)"
       style="fill:url(#grad_1)" />
  </g>
</svg>

<svg version="1.1" width="48" height="58" viewBox="-1 -1 48 58" xmlns="http://www.w3.org/2000/svg" xmlns:xlink="http://www.w3.org/1999/xlink">
  <defs>
    <linearGradient id="grad_1" x1="352.5928" y1="1042.4482" x2="352.5928" y2="1139.9414" gradientUnits="userSpaceOnUse">
      <stop offset="0" stop-color="#EE2A7B"/>
      <stop offset="1" stop-color="#811150"/>
    </linearGradient>
  </defs>
  <!-- Exported by Scratch - http://scratch.mit.edu/ -->
  <g id="ID0.16137408139184117">
    <path id="ID0.6278323931619525" fill="url(#grad_1)" stroke="#FFFFFF" stroke-width="2.5" d="M 93.710 81.997 C 93.710 81.997 44.226 82.018 21.752 82.018 C 15.865 82.018 11.093 77.245 11.093 71.359 C 11.093 65.472 15.865 60.701 21.752 60.701 C 40.594 60.701 93.652 60.679 93.652 60.679 C 93.652 60.679 90.090 57.074 73.657 40.642 C 69.494 36.479 69.494 29.731 73.657 25.569 C 77.822 21.407 84.569 21.406 88.731 25.569 C 102.056 38.892 126.971 63.810 126.971 63.810 C 131.133 67.973 131.133 74.722 126.971 78.883 C 126.971 78.883 105.470 100.385 89.037 116.818 C 84.872 120.983 78.124 120.983 73.963 116.818 C 69.800 112.656 69.800 105.906 73.963 101.747 C 87.288 88.418 93.710 81.997 93.710 81.997 Z " transform="matrix(0.00033818339579738677, -0.46329107880592346, -0.46329107880592346, -0.00033818339579738677, 56.4, 60.95)"/>
  </g>
</svg>
